images/github.svg

<svg xmlns="http://www.w3.org/2000/svg" viewBox="0 0 46 46" width="61.333" height="61.333" xmlns:v="https://vecta.io/nano"><defs><clipPath id="A"><path d="M0 0h46v46H0z"/></clipPath></defs><g clip-path="url(#A)"><clipPath id="B"><path fill="#fff" d="M0 0h46v46H0z"/></clipPath><g clip-path="url(#B)"><clipPath id="C"><path fill="#fff" d="M0 0h46v46H0z"/></clipPath><g clip-path="url(#C)"><path d="M10.132 7.656c-10.413 1.44-8.961 9.67-6.325 17.594s7.325 12.03 16.869 14.105 17.203-.586 20.493-2.946 4.56-7.808 2.078-11.44-6.021-2.815-7.188-9.83-6.554-8.293-10.958-8.813-10.647.732-14.969 1.33z" fill="#e6e6e6"/><path d="M3.942 16.811C-3.843 25.09 1.998 32.094 8.645 38.02s12.835 6.798 21.885 2.495 13.875-11.941 15.259-16.4-.639-10.572-4.739-12.446-6.559 1.257-11.48-4.76-10.09-3.692-14.019-1.284-8.378 7.75-11.609 11.186z"/></g></g><path d="M33.229 22.628a16.2 16.2 0 0 0 .187-2.215c-.006-3.511-1.687-4.754-2.01-5.336.476-2.661-.079-3.871-.338-4.286-.952-.338-3.313.873-4.603 1.725-2.104-.616-6.549-.555-8.216.16-3.076-2.203-4.703-1.867-4.703-1.867s-1.052 1.886-.278 4.645c-1.012 1.29-1.766 2.201-1.766 4.62a14.3 14.3 0 0 0 .097 1.653c.871 4.583 4.502 6.56 8.069 6.9-.536.408-1.181 1.18-1.27 2.074-.674.436-2.031.581-3.086.249-1.478-.467-2.044-3.394-4.257-2.977-.479.09-.384.406.031.675.674.438 1.309.981 1.799 2.145.376.893 1.166 2.488 3.667 2.488.992 0 1.688-.117 1.688-.117l.018 3.164c0 1.021-1.378 1.308-1.378 1.798 0 .195.456.214.823.214.725 0 2.233-.604 2.233-1.666l.013-4.176c0-1.085.582-1.43.582-1.43s.071 5.792-.14 6.568c-.248.914-.696.784-.696 1.19 0 .607 1.813.149 2.414-1.179.465-1.037.257-6.717.257-6.717l.485-.011-.011 3.79c-.018 1.231-.145 2.787.586 3.522.48.483 1.95 1.331 1.95.556 0-.449-1.029-.82-1.029-2.036v-5.603c.625 0 .755 1.842.755 1.842l.225 3.421s-.15 1.249 1.349 1.77c.529.185 1.66.236 1.713-.075s-1.362-.773-1.376-1.74c-.007-.588.027-.933.027-3.492s-.344-3.505-1.542-4.26c3.473-.356 7.081-1.907 7.731-5.986z" fill="#fff"/></g></svg>

<?xml version="1.0" encoding="UTF-8" standalone="no"?><!-- Generator: Gravit.io --><svg xmlns="http://www.w3.org/2000/svg" xmlns:xlink="http://www.w3.org/1999/xlink" style="isolation:isolate" viewBox="0 0 46 46" width="46pt" height="46pt"><defs><clipPath id="_clipPath_fKHTs4SkHQSqhb3ZwLpnSMwzfAGfgIiX"><rect width="46" height="46"/></clipPath></defs><g clip-path="url(#_clipPath_fKHTs4SkHQSqhb3ZwLpnSMwzfAGfgIiX)"><clipPath id="_clipPath_5GGvH548mRiVvcAvse5TpwJR8txrcUGy"><rect x="0" y="0" width="46" height="46" transform="matrix(1,0,0,1,0,0)" fill="rgb(255,255,255)"/></clipPath><g clip-path="url(#_clipPath_5GGvH548mRiVvcAvse5TpwJR8txrcUGy)"><g><clipPath id="_clipPath_FMoMK5lkCOS6zR5jdbDXYavWOhrEcvxq"><rect x="0" y="0" width="46" height="46" transform="matrix(1,0,0,1,0,0)" fill="rgb(255,255,255)"/></clipPath><g clip-path="url(#_clipPath_FMoMK5lkCOS6zR5jdbDXYavWOhrEcvxq)"><g><g><path d=" M 10.132 7.656 C -0.281 9.096 1.171 17.326 3.807 25.25 C 6.443 33.174 11.132 37.28 20.676 39.355 C 30.22 41.429 37.879 38.769 41.169 36.409 C 44.458 34.048 45.729 28.601 43.247 24.969 C 40.764 21.336 37.226 22.154 36.059 15.139 C 34.893 8.125 29.505 6.846 25.101 6.326 C 20.698 5.806 14.454 7.058 10.132 7.656 Z " fill="rgb(230,230,230)"/><path d=" M 3.942 16.811 C -3.843 25.09 1.998 32.094 8.645 38.02 C 15.292 43.946 21.48 44.818 30.53 40.515 C 39.581 36.212 44.405 28.574 45.789 24.115 C 47.174 19.656 45.15 13.543 41.05 11.669 C 36.951 9.796 34.491 12.926 29.57 6.909 C 24.651 0.892 19.48 3.217 15.551 5.625 C 11.622 8.034 7.173 13.375 3.942 16.811 Z " fill="rgb(0,0,0)"/></g></g></g></g></g><g><g><g><path d=" M 33.229 22.628 C 33.334 21.962 33.4 21.232 33.416 20.413 C 33.41 16.902 31.729 15.659 31.406 15.077 C 31.882 12.416 31.327 11.206 31.068 10.791 C 30.116 10.453 27.755 11.664 26.465 12.516 C 24.361 11.9 19.916 11.961 18.249 12.676 C 15.173 10.473 13.546 10.809 13.546 10.809 C 13.546 10.809 12.494 12.695 13.268 15.454 C 12.256 16.744 11.502 17.655 11.502 20.074 C 11.502 20.653 11.538 21.2 11.599 21.727 C 12.47 26.31 16.101 28.287 19.668 28.627 C 19.132 29.035 18.487 29.807 18.398 30.701 C 17.724 31.137 16.367 31.282 15.312 30.95 C 13.834 30.483 13.268 27.556 11.055 27.973 C 10.576 28.063 10.671 28.379 11.086 28.648 C 11.76 29.086 12.395 29.629 12.885 30.793 C 13.261 31.686 14.051 33.281 16.552 33.281 C 17.544 33.281 18.24 33.164 18.24 33.164 C 18.24 33.164 18.258 35.44 18.258 36.328 C 18.258 37.349 16.88 37.636 16.88 38.126 C 16.88 38.321 17.336 38.34 17.703 38.34 C 18.428 38.34 19.936 37.736 19.936 36.674 C 19.936 35.83 19.949 32.995 19.949 32.498 C 19.949 31.413 20.531 31.068 20.531 31.068 C 20.531 31.068 20.602 36.86 20.391 37.636 C 20.143 38.55 19.695 38.42 19.695 38.826 C 19.695 39.433 21.508 38.975 22.109 37.647 C 22.574 36.61 22.366 30.93 22.366 30.93 L 22.851 30.919 C 22.851 30.919 22.856 33.521 22.84 34.709 C 22.822 35.94 22.695 37.496 23.426 38.231 C 23.906 38.714 25.376 39.562 25.376 38.787 C 25.376 38.338 24.347 37.967 24.347 36.751 L 24.347 31.148 C 24.972 31.148 25.102 32.99 25.102 32.99 L 25.327 36.411 C 25.327 36.411 25.177 37.66 26.676 38.181 C 27.205 38.366 28.336 38.417 28.389 38.106 C 28.442 37.794 27.027 37.333 27.013 36.366 C 27.006 35.778 27.04 35.433 27.04 32.874 C 27.04 30.315 26.696 29.369 25.498 28.614 C 28.971 28.258 32.579 26.707 33.229 22.628 Z " fill="rgb(255,255,255)"/></g></g></g></g></svg>
